X: 6
T: Hull's (R-169; \251John Morris Rankin)
M: C|
L: 1/8
R: reel
F:
K: Emaj
ec|"E"BE E/E/E B2 Ac|"E"BE E/E/E "A"cBce|"E"BE E/E/E B2 AB|"A"cBce "B7"fefg|
"E"BE E/E/E B2 Ac|"E"BE E/E/E "A"cBce|"F#m"fgfe c2Bc|"A"efec "B7"Be:|
|:ef| "E"gB B/B/B "E/B"g2fg|"A"fc c/c/c c2Bc|"F#m"fc c/c/c c2Bc|"B7"eB B/B/B Bcef|
"E"gB B/B/B "E/B"g2fg|"A"fc c/c/c c2Bc|"F#m"fgfe c2Bc|"A"efec "B7"Be :|"Ending""E"e[cf]|[B2e2g2]||

#include "LeftHeader.h"
%scale .9
%%text Set 85
%%vskip -1cm
% ---------- set 85 ----------
% Roaring Jelly (D) / Kesh Jig (G) / Morrison's (E Dor) / Stan Chapman (A)
%%textfont       Times-Roman 10.0
